!!!COM: Anon.
!!!OTL: Excitatur Caritas in Yerico
!!!SCA: Folio 252-252'
!!!YOR: from 'Thirty-Five Conductus for Two and Three Voices', p.52
!!!YOR: edited by Janet Knapp, Collegium Musicum No. 6, Yale University (1965)
!!!YOR: from the School of Notre Dame; circa 1170-1240
!!!YOO: Yale University
!!!YOY: 1965
**kern	**kern	**kern
*M6/8	*M6/8	*M6/8
=1	=1	=1
4D	4F	4F
8C	8E	8G
4D	4D	4A
8E	8C	8c
=2	=2	=2
8F	8F	8B
8E	8E	8A
8D	8F	8G
4C	4G	4c
8D	8A	8d
=3	=3	=3
8E	8G	4c
8D	8F	.
8C	8E	8B
4D	4D	4A
8r	8r	8r
=4	=4	=4
4F	4A	4F
16G	16G	16E
16A	16F	16D
4G	4G	4C
16A	8A	8D
16G	.	.
=5	=5	=5
8F	4c	8F
8E	.	8E
8D	{24B	8F
.	24A	.
.	24G}	.
4C	4c	4G
8D	8d	8A
=6	=6	=6
8E	16c	8G
.	16B	.
8D	8A	8F
8C	8G	8E
4D	4A	4D
8r	8r	8r
=7	=7	=7
4C	4G	4G
8D	8F	8A
4F	8E	4c
.	8D	.
8E	8C	8B
=8	=8	=8
4D	4D	8c
.	.	8d
8E	8AA	8c
4C	4C	8B
.	.	8A
8BB	8D	8G
=9	=9	=9
4AA	4E	4A
8GG	8G	8G
4C	4F	4c
8D	16G	8d
.	16A	.
=10	=10	=10
8E	8G	4c
8D	8F	.
8C	8E	8B
4D	4D	4A
8r	8r	8r
=11	=11	=11
4E	4E	4B
8F	8D	8A
4G	4C	8c
.	.	8B
8F	8D	8A
=12	=12	=12
4E	4E	4B
8D	16F	8c
.	16G	.
4E	8F	8B
.	8E	8A
8C	8D	8G
=13	=13	=13
4AA	4E	4A
8GG	8F	8F
4C	4E	4G
8D	8D	8A
=14	=14	=14
8F	8F	8c
8E	8G	8B
8D	8A	8A
8E	8G	8G
8D	8F	8F
8C	8E	8G
=15	=15	=15
4.D	4.D	4.A
4.r	4.r	4.r
=16	=16	=16
4C	4G	4G
8D	8F	8A
4F	8E	4c
.	8D	.
8E	8C	8B
=17	=17	=17
4D	4D	8c
.	.	8d
8E	8AA	8c
4C	4C	8B
.	.	8A
8BB	8D	8G
=18	=18	=18
4AA	4E	4A
8GG	8G	8G
4C	4F	4c
8D	16G	8d
.	16A	.
=19	=19	=19
8E	8G	4c
8D	8F	.
8C	8E	8B
4D	4D	4A
8r	8r	8r
=20	=20	=20
4E	4E	4B
8F	8D	8A
4G	4C	8c
.	.	8B
8F	8D	8A
=21	=21	=21
4E	4E	4B
8D	16F	8c
.	16G	.
4E	8F	8B
.	8E	8A
8C	8D	8G
=22	=22	=22
4AA	4E	4A
8GG	8F	8F
4C	4E	4G
8D	8D	8A
=23	=23	=23
8F	8F	8c
8E	8G	8B
8D	8A	8A
8E	8G	8G
8D	8F	8F
8C	8E	8G
=24	=24	=24
4.D	4.D	4.A
4.r	4.r	4.r
==	==	==
*-	*-	*-
!!!ENC: David Huron
!!!YEC: Copyright 1987, David Huron
!!!EEV: 1.0
